icons/device/display.svg

<svg width="32" height="32" viewBox="0 0 32 32" fill="none" xmlns="http://www.w3.org/2000/svg">
<path fill-rule="evenodd" clip-rule="evenodd" d="M4 4C2.89543 4 2 4.89543 2 6V22C2 23.1046 2.89543 24 4 24H15V28H8V30H24V28H17V24H28C29.1046 24 30 23.1046 30 22V6C30 4.89543 29.1046 4 28 4H4ZM4 6L28 6V22H4V6Z" fill="black"/>
</svg>

<svg width="32" height="32" viewBox="0 0 32 32" xmlns="http://www.w3.org/2000/svg">
    <path fill-rule="evenodd" d="M4 4a2 2 0 00-2 2v16a2 2 0 002 2h11v4H8v2h16v-2h-7v-4h11a2 2 0 002-2V6a2 2 0 00-2-2H4zm0 2h24v16H4V6z"/>
</svg>
